src/assets/duotone/Forbidden.svg

<svg width="24" height="24" viewBox="0 0 24 24"  xmlns="http://www.w3.org/2000/svg">
<path opacity="0.4" d="M14.9 2H9.10001C8.42001 2 7.46 2.4 6.98 2.88L2.88 6.98001C2.4 7.46001 2 8.42001 2 9.10001V14.9C2 15.58 2.4 16.54 2.88 17.02L6.98 21.12C7.46 21.6 8.42001 22 9.10001 22H14.9C15.58 22 16.54 21.6 17.02 21.12L21.12 17.02C21.6 16.54 22 15.58 22 14.9V9.10001C22 8.42001 21.6 7.46001 21.12 6.98001L17.02 2.88C16.54 2.4 15.58 2 14.9 2Z" />
<path d="M3.01996 21.75C2.82996 21.75 2.63996 21.68 2.48996 21.53C2.19996 21.24 2.19996 20.76 2.48996 20.47L20.47 2.48996C20.76 2.19996 21.24 2.19996 21.53 2.48996C21.82 2.77996 21.82 3.25996 21.53 3.54996L3.54996 21.53C3.40996 21.68 3.21996 21.75 3.01996 21.75Z" />
</svg>

<?xml version="1.0" encoding="UTF-8"?>
<svg width="24" height="24" viewBox="0 0 24 24" xmlns="http://www.w3.org/2000/svg">
 <path d="m14.9 2h-5.8c-0.68 0-1.64 0.4-2.12 0.88l-4.1 4.1c-0.48 0.48-0.88 1.44-0.88 2.12v5.8c0 0.68 0.4 1.64 0.88 2.12l4.1 4.1c0.48 0.48 1.44 0.88 2.12 0.88h5.8c0.68 0 1.64-0.4 2.12-0.88l4.1-4.1c0.48-0.48 0.88-1.44 0.88-2.12v-5.8c0-0.68-0.4-1.64-0.88-2.12l-4.1-4.1c-0.48-0.48-1.44-0.88-2.12-0.88z" opacity=".4"/>
 <path d="m3.02 21.75c-0.19 0-0.38-0.07-0.53-0.22-0.29-0.29-0.29-0.77 0-1.06l17.98-17.98c0.29-0.29 0.77-0.29 1.06 0s0.29 0.77 0 1.06l-17.98 17.98c-0.14 0.15-0.33 0.22-0.53 0.22z"/>
</svg>
